src/images/svg/markets/precious-metals-and-oils-new.svg

<svg width="50" height="50" viewBox="0 0 50 50" fill="none" xmlns="http://www.w3.org/2000/svg">
<rect opacity="0.01" x="1" y="1" width="48" height="48" fill="white" stroke="#979797"/>
<path fill-rule="evenodd" clip-rule="evenodd" d="M29.8457 41.4219L31.3377 45.9159L32.8297 41.4219H29.8457Z" fill="#85ACAF"/>
<path fill-rule="evenodd" clip-rule="evenodd" d="M17.719 38.577H21.05L21.066 38.529L22.168 35.207H3.177V45.166H1V48.999H11.358L11.588 48.306L13.904 41.33C14.45 39.683 15.984 38.577 17.719 38.577Z" fill="#85ACAF"/>
<path fill-rule="evenodd" clip-rule="evenodd" d="M27.1968 28.8H35.4778C35.5948 28.8 35.7088 28.818 35.8228 28.827V18.709H3.17578V33.292H22.8038L23.3818 31.553C23.9278 29.906 25.4618 28.8 27.1968 28.8Z" fill="#85ACAF"/>
<path fill-rule="evenodd" clip-rule="evenodd" d="M46.6829 42.0243C46.4359 41.2803 45.7399 40.7773 44.9559 40.7773H36.6749C35.8899 40.7773 35.1949 41.2803 34.9479 42.0243L32.6309 49.0003H48.9989L46.6829 42.0243Z" fill="#85ACAF"/>
<mask id="mask0_11788_391700" style="mask-type:alpha" maskUnits="userSpaceOnUse" x="13" y="40" width="18" height="9">
<path fill-rule="evenodd" clip-rule="evenodd" d="M13.6758 40.7773H30.0428V49H13.6758V40.7773Z" fill="white"/>
</mask>
<g mask="url(#mask0_11788_391700)">
<path fill-rule="evenodd" clip-rule="evenodd" d="M25.9998 40.7773H17.7188C16.9348 40.7773 16.2378 41.2793 15.9908 42.0243L13.6758 49.0003H30.0428L27.7278 42.0243C27.4798 41.2793 26.7838 40.7773 25.9998 40.7773Z" fill="#85ACAF"/>
</g>
<path fill-rule="evenodd" clip-rule="evenodd" d="M37.2043 32.247C36.9583 31.503 36.2623 31 35.4773 31H27.1963C26.4123 31 25.7163 31.503 25.4693 32.247L23.1523 39.223H39.5203L37.2043 32.247Z" fill="#85ACAF"/>
<mask id="mask1_11788_391700" style="mask-type:alpha" maskUnits="userSpaceOnUse" x="1" y="1" width="37" height="16">
<path fill-rule="evenodd" clip-rule="evenodd" d="M1 1H37.9998V16.792H1V1Z" fill="white"/>
</mask>
<g mask="url(#mask1_11788_391700)">
<path fill-rule="evenodd" clip-rule="evenodd" d="M3.177 16.792H35.823V6.833H38V3H15.405V1H8.591V3H1V6.833H3.177V16.792Z" fill="#85ACAF"/>
</g>
<g style="mix-blend-mode:multiply">
<path fill-rule="evenodd" clip-rule="evenodd" d="M37.1738 8.77673C36.9901 8.57813 36.0927 7.64463 35.4778 7C34.7864 7.75508 34.0016 8.61106 33.8487 8.77673C31.7236 11.0473 27.3418 15.7626 27.3418 19.8417C27.3418 24.6451 30.6977 28 35.5011 28C40.3035 28 43.6584 24.6451 43.6584 19.8417C43.6584 15.7626 39.2766 11.0473 37.1738 8.77673Z" fill="#FF444F"/>
</g>
</svg>

<svg width="50" height="50" fill="none" xmlns="http://www.w3.org/2000/svg"><path opacity=".01" fill="#fff" stroke="#979797" d="M1 1h48v48H1z"/><path fill-rule="evenodd" clip-rule="evenodd" d="m29.846 41.422 1.492 4.494 1.492-4.494h-2.984ZM17.719 38.577h3.331l.016-.048 1.102-3.322H3.177v9.959H1v3.833h10.358l.23-.693 2.316-6.976a4.013 4.013 0 0 1 3.815-2.753ZM27.197 28.8h8.28c.118 0 .232.018.346.027V18.709H3.176v14.583h19.628l.578-1.739a4.013 4.013 0 0 1 3.815-2.753ZM46.683 42.024a1.82 1.82 0 0 0-1.727-1.247h-8.281a1.82 1.82 0 0 0-1.727 1.247L32.63 49h16.368l-2.316-6.976Z" fill="#85ACAF"/><mask id="a" style="mask-type:alpha" maskUnits="userSpaceOnUse" x="13" y="40" width="18" height="9"><path fill-rule="evenodd" clip-rule="evenodd" d="M13.676 40.777h16.367V49H13.676v-8.223Z" fill="#fff"/></mask><g mask="url(#a)"><path fill-rule="evenodd" clip-rule="evenodd" d="M26 40.777h-8.281a1.82 1.82 0 0 0-1.728 1.247L13.676 49h16.367l-2.315-6.976A1.821 1.821 0 0 0 26 40.777Z" fill="#85ACAF"/></g><path fill-rule="evenodd" clip-rule="evenodd" d="M37.204 32.247A1.819 1.819 0 0 0 35.477 31h-8.28a1.82 1.82 0 0 0-1.728 1.247l-2.317 6.976H39.52l-2.316-6.976Z" fill="#85ACAF"/><mask id="b" style="mask-type:alpha" maskUnits="userSpaceOnUse" x="1" y="1" width="37" height="16"><path fill-rule="evenodd" clip-rule="evenodd" d="M1 1h37v15.792H1V1Z" fill="#fff"/></mask><g mask="url(#b)"><path fill-rule="evenodd" clip-rule="evenodd" d="M3.177 16.792h32.646V6.833H38V3H15.405V1H8.591v2H1v3.833h2.177v9.959Z" fill="#85ACAF"/></g><path fill-rule="evenodd" clip-rule="evenodd" d="M37.174 8.777C36.99 8.578 36.093 7.645 35.478 7a1274 1274 0 0 1-1.63 1.777c-2.124 2.27-6.506 6.986-6.506 11.065 0 4.803 3.356 8.158 8.16 8.158 4.801 0 8.156-3.355 8.156-8.158 0-4.08-4.381-8.795-6.484-11.065Z" fill="#FF444F" style="mix-blend-mode:multiply"/></svg>
